Simply-Orange-Circles/scalable/places/folder-playonlinux.svg

<?xml version="1.0" encoding="UTF-8" standalone="no"?>
<svg
   xmlns:dc="http://purl.org/dc/elements/1.1/"
   xmlns:cc="http://creativecommons.org/ns#"
   xmlns:rdf="http://www.w3.org/1999/02/22-rdf-syntax-ns#"
   xmlns:svg="http://www.w3.org/2000/svg"
   xmlns="http://www.w3.org/2000/svg"
   xmlns:sodipodi="http://sodipodi.sourceforge.net/DTD/sodipodi-0.dtd"
   xmlns:inkscape="http://www.inkscape.org/namespaces/inkscape"
   width="48"
   height="48"
   viewBox="0 0 12.7 12.7"
   version="1.1"
   id="svg12"
   sodipodi:docname="folder-playonlinux.svg"
   inkscape:version="0.92.4 (5da689c313, 2019-01-14)">
  <metadata
     id="metadata18">
    <rdf:RDF>
      <cc:Work
         rdf:about="">
        <dc:format>image/svg+xml</dc:format>
        <dc:type
           rdf:resource="http://purl.org/dc/dcmitype/StillImage" />
        <dc:title></dc:title>
      </cc:Work>
    </rdf:RDF>
  </metadata>
  <defs
     id="defs16" />
  <sodipodi:namedview
     pagecolor="#ffffff"
     bordercolor="#666666"
     borderopacity="1"
     objecttolerance="10"
     gridtolerance="10"
     guidetolerance="10"
     inkscape:pageopacity="0"
     inkscape:pageshadow="2"
     inkscape:window-width="1085"
     inkscape:window-height="480"
     id="namedview14"
     showgrid="false"
     inkscape:zoom="4.9166667"
     inkscape:cx="2.1355932"
     inkscape:cy="24"
     inkscape:window-x="0"
     inkscape:window-y="25"
     inkscape:window-maximized="0"
     inkscape:current-layer="svg12" />
  <path
     d="M 6.344,0.07 A 6.29,6.29 0 0 0 0.055,6.36 6.29,6.29 0 0 0 6.345,12.648 6.29,6.29 0 0 0 12.633,6.359 6.29,6.29 0 0 0 6.345,0.07 Z M 6.326,1.006 A 5.407,5.407 0 0 1 11.733,6.413 5.407,5.407 0 0 1 6.326,11.82 5.407,5.407 0 0 1 0.92000003,6.413 5.407,5.407 0 0 1 6.327,1.006 Z"
     id="path2"
     inkscape:connector-curvature="0"
     style="fill:#ff7f2a" />
  <path
     d="m 6.362,6.34 h -4.19 c 0,-2.294 1.896,-4.141 4.19,-4.141"
     id="path4"
     inkscape:connector-curvature="0"
     style="opacity:0.6;fill:#44aa00" />
  <path
     d="M 6.362,6.34 V 2.199 A 4.131,4.131 0 0 1 10.5,6.34"
     id="path6"
     inkscape:connector-curvature="0"
     style="opacity:0.6;fill:#ffff00" />
  <path
     d="m 6.362,6.34 h -4.19 c 0,2.294 1.896,4.141 4.19,4.141"
     id="path8"
     inkscape:connector-curvature="0"
     style="opacity:0.6;fill:#ff0000" />
  <path
     d="m 6.362,6.34 v 4.141 A 4.131,4.131 0 0 0 10.5,6.34"
     id="path10"
     inkscape:connector-curvature="0"
     style="opacity:0.6;fill:#0066ff" />
</svg>

<svg xmlns="http://www.w3.org/2000/svg" width="48" height="48" viewBox="0 0 12.7 12.7"><path fill="#ff7f2a" d="M6.34.07A6.29 6.29 0 0 0 .05 6.36a6.29 6.29 0 0 0 6.3 6.29 6.29 6.29 0 0 0 6.28-6.3A6.29 6.29 0 0 0 6.34.08zm-.01.94a5.4 5.4 0 0 1 5.4 5.4 5.4 5.4 0 0 1-5.4 5.41 5.4 5.4 0 0 1-5.41-5.4A5.4 5.4 0 0 1 6.32 1z"/><path fill="#4a0" d="M6.36 6.34H2.17c0-2.3 1.9-4.14 4.2-4.14" opacity=".6"/><path fill="#ff0" d="M6.36 6.34V2.2a4.13 4.13 0 0 1 4.14 4.14" opacity=".6"/><path fill="red" d="M6.36 6.34H2.17c0 2.3 1.9 4.14 4.2 4.14" opacity=".6"/><path fill="#06f" d="M6.36 6.34v4.14a4.13 4.13 0 0 0 4.14-4.14" opacity=".6"/></svg>
